!!!OTL: Taubenlied (2-48) S. 155
!!!id: P0921
**kern
*clefG2
*k[b-e-a-]
*E-:
{8e-
8f
=1
4g
4g
16.b-
32a-
16.g
32a-
=2
8b-
8cc
4b-}
=3
{8ee-
8cc
=4
4b-
4a-
8a-
8g
=5
8g
16a-
16g
4f}
=6
{8b-
8cc
=7
4b-
4a-
8a-
8g
=8
8g
16a-
16g
4f}
=9
{8b-
8cc
=10
4b-
4a-
8a-
8g
=11
8g
16a-
16g
4f}
=12
{8b-
16cc
16dd
=13
8ee-
8cc
8cc
8b-}
=14
{8b-
16cc
16dd
=15
8ee-
8cc
8cc
8b-}
=16
{8cc
8a-
=17
4g
8.b-
16g
8.g
32e-
32a-
=18yy
32g
32f
32e-
=19
4f
4e-}
==
*-
!!!minrhy: 32
!!!meters: 3/4 ]  ZZ[7
!!!cut: Taubenlied (2-48) S. 155
!!!reg: Lothringen
!!!trd: PINCK, Louis: Verklingende Weisen, Bd 2, Metz 1928
!!!rhy1: X__X__  X___X___X_.XX_.X  X__X__X___
!!!rhy2: X__X__  X___X___X__X__  X__X_X_X___
!!!key: P0921  32 Eb 3/4 ]  ZZ[7
!!!mod: HEPTATONIK IONISCH]  AMBITUS[8
!!!kad: 5222551
!!!akz: 35_53_53_53_+1_+1_32_
!!!fot: 'a__b__bw_bw_c__c__d__
!!!for: 'a__b__b__b__c__c__d__
!!!fok: '~a_\__\__\__^__^__\__
!! PHRAS[AUFTAKTIG]
!!!fkt: ???
!! LOTH VKL
!! PR[19] 2K[2] 2G[2] 3K[7] 3G[14] 4A[2] 4Ü[0] 5A[0] 6K[2] 6G[0]
!! 7K[0] 7G[0] 8A[0] MEHR[0] SI[30] ABS[43] SR[5] SP[26]
!! ST[11] 2k[9] 2g[28] 3k[2] 3g[7] 4d[5] 4ü[0] 5d[0] 6k[0] 6g[0]
!! 7k[0] 7g[0] 8d[0] mehr[0] si[51] dm[-21] sr[37] sp[14]
!! 1F[4] 2F[57] 3F[33] 4F[0] LF[0] 2P[0] 3P[7] 4P[0] TRI[0] DF[4] AB[46]
!! TF[0] U3K[0] U3[0] U4[0] U4Ü[0] U5[0] U6K[0] U6[0] U7K[0] U7[0]
!! N1[9] N2K[0] N2[9] N3K[0] N3[32] N4[18] N4Ü[0] N5[20] N6K[0] N6[7]
!!!n7k: 0] N7[0] O1[5] O2K[0] O2[0] O3K[0] O3[0] HÖ[0
